X:1
T:Schottis efter Aina Liljebjörn
R:Schottis
S:Efter Aina Liljebjörn
O:Gustafsfors, Värmland
B:
Z:ABC-transkribering av Per Saxholm
M:2/4
L:1/8
K:G
|GB dB|ee ee|de dc|B2 BA|FA dA|FA dA|GB e2|(3ded B2|GB dB|ee ee|de dc|B2 BA|FA dA|FA dA|G2 B2|1G4:|2G2 Bd|]g2 g2|f2 e2|dd (3BdB|G3B|dd cc| (3AcA F2|ee dd|(3BdB G2|g2 g2|f2 e2|dd (3BdB|G3B|dd cc|BB (3ABA|G2 B2|1G2 Bd:|2G4|]|

